X: 11711
Q: "Slow."
M: C
L: 1/8
K: Am
[|\
c2 A2 A2 A2 | c2 d/c/ B/A/ BG E2 |\
c2 A2 A2 A2 | GEGB A4 |\
c3 d e2 e2 | fe dc dB G2 |\
E2 AE A2 A2 | GE GB A4 |]


